assets/Eggplant/Flat/eggplant_flat.svg

<svg width="32" height="32" viewBox="0 0 32 32" fill="none" xmlns="http://www.w3.org/2000/svg">
<path d="M19.5 30C4.48126 30 2.5 18.5 2.5 9H12.5C13.5 12 14.7619 16.623 21.5 15.5C27.5 14.5 30 19.2265 30 22C30 24 29.5 30 19.5 30Z" fill="#8C42B3"/>
<path d="M7.5 2C6.67157 2 6 2.67157 6 3.5V4.27115C3.68008 5.01153 2 7.18456 2 9.75V10C2 10.5523 2.49505 11.0182 2.91905 10.6643C3.14028 10.4796 3.32014 10.2398 3.5 10C3.875 9.5 4.25 9 5 9C5.75 9 6.125 9.5 6.5 10C6.875 10.5 7.25 11 8 11C8.75 11 9.125 10.5 9.5 10C9.875 9.5 10.25 9 11 9C11.7379 9 12.0886 9.484 12.445 9.9758C12.4979 10.0488 12.5509 10.122 12.6053 10.1938C12.954 10.6537 13.5 10.3271 13.5 9.75C13.5 7.00364 11.5746 4.70699 9 4.13625V3.5C9 2.67157 8.32843 2 7.5 2Z" fill="#00D26A"/>
<path d="M27 19C27 20.1046 26.1046 21 25 21C23.8954 21 23 20.1046 23 19C23 17.8954 23.8954 17 25 17C26.1046 17 27 17.8954 27 19Z" fill="#BCA4EB"/>
</svg>

<svg xmlns="http://www.w3.org/2000/svg" width="32" height="32" fill="none"><path fill="#8C42B3" d="M19.5 30c-15.019 0-17-11.5-17-21h10c1 3 2.262 7.623 9 6.5 6-1 8.5 3.727 8.5 6.5 0 2-.5 8-10.5 8Z"/><path fill="#00D26A" d="M7.5 2A1.5 1.5 0 0 0 6 3.5v.771c-2.32.74-4 2.914-4 5.479V10c0 .552.495 1.018.919.664.221-.184.401-.424.581-.664.375-.5.75-1 1.5-1s1.125.5 1.5 1 .75 1 1.5 1 1.125-.5 1.5-1 .75-1 1.5-1c.738 0 1.089.484 1.445.976l.16.218c.349.46.895.133.895-.444A5.752 5.752 0 0 0 9 4.136V3.5A1.5 1.5 0 0 0 7.5 2Z"/><path fill="#BCA4EB" d="M27 19a2 2 0 1 1-4 0 2 2 0 0 1 4 0Z"/></svg>
